X:1
T:Attleborough
T:E minor              Hezekiah Moors, 1809
T:Transcribed from Province  Harmony, 1809
T:Isaac Watts, 1719 (Psalm 89, Last Part)                  88. 88. 88.
%%score [ 1 2 3 4 ]
L:1/8
Q:1/4=120
M:2/2
K:G
V:1 treble nm="Tr." snm="Tr."
V:2 treble nm="A." snm="A."
V:3 treble-8 nm="T." snm="T."
V:4 bass nm="B." snm="B."
V:1
 B4- | B4 B2 B2 | B2 B2 B2 BA | G6 B2 | B6 B2 | B6 B2 | (BAGA B2) B2 | B6 c2 | B2 G6 | A2 F6 | %10
w: 1. Lord,|* shall it|be for- ev- er *|said, The|race of|man was|on- * * * * ly|made for|sick- ness,|sor- row,|
w: ||||||||flesh and|sense in-|
w: ||||||||all their|toil, re-|
 E4 ^D4 | E6 z2 |: z8 | z4 z2 e2 | ^d2 B2 B2 g2 | (fgfe ^d2) B2 | B6 A2 | GF EF G2 GA | %18
w: and the|dust?||Are|not thy ser- vants|day  _ _ _ _ by|day Sent|to * their * graves, Sent *|
w: dulge des-|pair:||For|ev- er bles- sed|be  _ _ _ _ the|Lord, That|faith * can * read, That *|
w: proach, and|pain:||Let|all be- low and|all  _ _ _ _ a-|bove Join|to * pro- * claim, Join *|
 B2 B2 BA GA | B6 B2 | B8 | B4 G2 E2 | G2 B2 Bc BA | (G3 A B2 G2 | d6) d2 | d2 d2 d2 d2 | d6 c2 | %27
w: to their graves, * and *|turned to|clay?|Lord, where's thy|kind- ness to * the *|just?  _ _ _|_ Lord,|where's thy kind- ness|to the|
w: faith can read * his *|ho- ly|word,|And find a|re- sur- rec- * tion *|there,  _ _ _|_ And|find a re- sur-|rec- tion|
w: to pro- cliam * thy *|won- drous|love,|And each re-|peat their loud * A- *|men,  _ _ _|_ And|each re- peat their|loud A-|
 B6 BA | G2 GA B2 c2 | B4 B4 |1 B6 z2 :|2 B8 |] %32
w: just? Lord, *|where's thy * kind- ness|to the|just?||
w: there, And *|find a * re- sur-|rec- tion|there.||
w: men, And *|each re- * peat their|loud A-|men.||
V:2
 E4- | E4 ^D2 D2 | E2 E2 E2 EF | G6 G2 | F6 G2 | G6 F2 | (G3 A G2) G2 | F6 E2 | D2 D6 | E2 D6 | %10
w: 2. Hast|* thou not|pro- mised to thy *|Son And|all his|seed a|heaven- * * ly|crown? But|sick- ness,|sor- row,|
w: ||||||||flesh and|sense in-|
w: ||||||||all their|toil, re-|
 B,4 B,4 | B,6 z2 |: z8 | z8 | z4 z2 G2 | F2 F2 F2 F2 | (GFED E2) E2 | D6 EF | G2 F2 GF EF | %19
w: and the|dust?|||Are|not thy ser- vants|day  _ _ _ _ by|day Sent *|to their graves, * and *|
w: dulge des-|pair:|||For|ev- er bles- sed|be  _ _ _ _ the|Lord, That *|faith can read * his *|
w: proach, and|pain:|||Let|all be- low and|all  _ _ _ _ a-|bove Join *|to pro- claim * thy *|
 G6 G2 | F8 | z8 | G4 F2 D2 | B,2 G2 FG FE | D8- | D6 G2 | F2 F2 F2 E2 | F2 F2 F2 F2 | %28
w: turned to|clay?||Lord, where's thy|kind- ness to * the *|just? |_ Lord,|where's thy kind- ness|to the just? Lord,|
w: ho- ly|word,||And find a|re- sur- rec- * tion *|there, |_ And|find a re- sur-|rec- tion there, And|
w: won- drous|love,||And each re-|peat their loud * A- *|men, |_ And|each re- peat their|loud A- men, And|
 G2 G2 G2 AG | F6 F2 |1 E6 z2 :|2 E8 |] %32
w: where's thy kind- ness *|to the|just?||
w: find a re- sur- *|rec- tion|there.||
w: each re- peat their *|loud A-|men.||
V:3
 E4- | E4 B2 B2 | BA GF EF GA | B6 e2 | ^d6 B2 | e6 ^d2 | (efgf e2) e2 | ^d6 e2 | d2 B6 | c2 A6 | %10
w: 3. For|* ev- er|bles- * sed * be * the *|Lord, Who|gives his|saints a|long  _ _ _ _ re-|ward For|all their|sor- row,|
w: ||||||||flesh and|sense in-|
w: ||||||||all their|toil, re-|
 G4 F4 | E6 z2 |: z4 z2 e2 | ^d2 B2 B2 g2 | (fgfe ^d2) B2 | B6 BA | G2 GA B2 c2 | BA GA B2 d2 | %18
w: and the|dust?|Are|not thy ser- vants|day  _ _ _ _ by|day Are *|not thy * ser- vants|day * by * day Sent|
w: dulge des-|pair:|For|ev- er bles- sed|be  _ _ _ _ the|Lord, For *|ev- er * bles- sed|be * the * Lord, That|
w: proach, and|pain:|Let|all be- low and|all  _ _ _ _ a-|bove, Let *|all be- * low and|all * a- * bove Join|
 e2 ^d2 ef gf | e6 e2 | ^d8 | z8 | z8 | B4 G2 E2 | G2 B2 Bc BA | (B4 ABAG | A6) e2 | ^d2 d2 d2 B2 | %28
w: to their graves, * and *|turned to|clay?|||Lord, where's thy|kind- ness to * the *|just?  _ _ _ _|_ Lord,|where's thy kind- ness,|
w: faith can read * his *|ho- ly|word,|||And find a|re- sur- rec- * tion *|there,  _ _ _ _|_ And|find a re- sur-|
w: to pro- claim * thy *|won- drous|love,|||And each re-|peat their loud * A- *|men,  _ _ _ _|_ And|each re- peat their,|
 e^d ef g2 fe | ^d6 d2 |1 e6 z2 :|2 e8 |] %32
w: where's * thy * kind- ness *|to the|just?||
w: rec- * tion, * re- sur- *|rec- tion|there.||
w: each * re- * peat their *|loud A-|men.||
V:4
 E,4- | E,4 B,,2 B,,2 | E,2 E,2 E,2 G,F, | E,6 E,2 | B,6 G,2 | E,6 B,,2 | (E,3 ^D, E,2) E,2 | %7
w: |||||||
w: |||||||
w: |||||||
 B,,6 A,,2 | G,,2 B,,6 | A,,2 D,6 | E,4 B,,4 | E,6 E,2 |: G,2 E,2 E,2 A,2 | (G,F,E,D, E,2) E,2 | %14
w: ||||* Are|not thy ser- vants|day  _ _ _ _ by|
w: ||||* For|ev- er bles- sed|be  _ _ _ _ the|
w: ||||* Let|all be- low and|all  _ _ _ _ a-|
 B,,6 B,,2 | B,,2 B,,2 B,,2 ^D,2 | E,6 E,F, | G,6 G,F, | E,2 B,,2 E,2 E,^D, | E,6 E,2 | B,,8 | z8 | %22
w: day, Are|not thy ser- vants|day by *|day Sent *|to their graves, and *|turned to|clay?||
w: Lord, For|ev- er bles- sed|be the *|Lord, That *|faith can read his *|ho- ly|word,||
w: bove, Let|all be- low and|all a- *|bove, Join *|to pro- claim thy *|won- drous|love,||
 z8 | z8 | G,4 F,2 D,2 | B,,2 G,2 F,G, F,E, | %26
w: ||Lord, where's thy|kind- ness to * the *|
w: ||And find a|re- sur- rec- * tion *|
w: ||And each re-|peat their loud * A- *|
"___________________________________________________\nEdited by B. C. Johnston, 2018\n   Measure 15, Tenor: D changed to D# (like Treble, m. 16)." D,6 E,2 | %27
w: just? Lord,|
w: there, And|
w: men, And|
 B,,2 B,,2 B,,2 ^D,2 | E,2 E,2 E,2 A,2 | B,4 B,,4 |1 E,6 E,2 :|2 E,8 |] %32
w: where's thy kind- ness,|where's thy kind- ness|to the|just? Are||
w: find a re- sur-|rec- tion, re- sur-|rec- tion|there. For||
w: each re- peat their,|each re- peat their|loud A-|men. Let||

